X:1268
T:Bean an T\'i ar L\'ar
T:Woman of the House on the Floor, The
T:Old Oak Tree, The
R:reel
D:De Dannan: Selected Jigs and Reels.
D:Tommy Peoples.
Z:id:hn-reel-76
M:C|
K:D
B|:AGFE D2FD|GEFE Ddcd|AGFE DEFD|1 EG=cA BGEB:|2 EG=cA BGEd||
cdec ~A3d|cdec AGEA|cdec ABAG|EG=cA BGEd|
cdec ~A3d|cdec AGEd|cdeg fdec|ABcA BdcB||


